X: 21
T:Polka'r Pryf Tan
T:The Firefly Polka
M:2/4
L:1/16
Q:100
S:Robin Huw Bowen
R:Polka
A:Wales
Z:brian_martin12345@yahoo.com
K:D
A^G|A2d2 Bcd2|cde2 defg|a2d2 g3f|efed ecA2|!
A2d2 Bcd2|cde2 defg|a2d2 g3f|edce d2:||!
fg|a2d2 dcd2|a2d2 dcd2|fad2 fad2|efed ecA2|!
fad2 dcd2|fad2 dcd2|fad2 b3a|1gfed c2:||2gfed "        D.C."cB||
